X:70
T:Mingotti's Maggot. JJo8.070
B:J.Johnson Choice Collection Vol 8 1758
Z:vmp.Simon Wilson 2013 www.village-music-project.org.uk
M:2/4
L:1/8
Q:1/4=100
K:A
e/d/e/f/ ed|cAAB|caBd|caAf|
e/d/e/f/ ed|cAag|fe fe/^d/|e4:|
|:B/c/B/c/ dc/B/&E4-|caa2&[E2A,2]z2|B/c/B/c/ dc/B/&E4-|cAAc&[E2A,2]z2|
B/c/B/c/ dc/B/&E4-|caaf&[E2A,2]z2|e>f e/d/c/B/|A2A,2:|
